baseball-bat.svg

<svg fill="currentColor" viewBox="0 0 24 24"><path d="M20 2c-.28 0-.5.11-.71.29l-9.5 9.5c-.04.04-.07.08-2.56 3.56L4 18.59l-.29-.3C3.5 18.1 3.26 18 3 18c-.56 0-1 .44-1 1 0 .26.1.5.29.71l2 2c.39.4 1.02.41 1.42.03.4-.39.41-1.02 0-1.45l-.3-.29 3.23-3.23 3.57-2.56 9.5-9.5c.39-.39.39-1.03 0-1.42l-1-1C20.5 2.1 20.26 2 20 2m-1.5 11a2.5 2.5 0 0 0-2.5 2.5 2.5 2.5 0 0 0 2.5 2.5 2.5 2.5 0 0 0 2.5-2.5 2.5 2.5 0 0 0-2.5-2.5"/></svg>

<svg  viewBox="0 0 24 24" fill="currentColor"><path  d="M20,2C19.72,2 19.5,2.11 19.29,2.29L9.79,11.79C9.75,11.83 9.72,11.87 7.23,15.35L4,18.59L3.71,18.29C3.5,18.1 3.26,18 3,18C2.44,18 2,18.44 2,19C2,19.26 2.1,19.5 2.29,19.71L4.29,21.71C4.68,22.11 5.31,22.12 5.71,21.74C6.11,21.35 6.12,20.72 5.71,20.29L5.41,20L8.64,16.77L12.21,14.21L21.71,4.71C22.1,4.32 22.1,3.68 21.71,3.29L20.71,2.29C20.5,2.1 20.26,2 20,2M18.5,13A2.5,2.5 0 0,0 16,15.5A2.5,2.5 0 0,0 18.5,18A2.5,2.5 0 0,0 21,15.5A2.5,2.5 0 0,0 18.5,13Z"/></svg>
